X: 1
T: Gaspe Reel
C: Trad
R: Reel
M: 4/4
L: 1/8
K: D
Z: ABC transcription by Verge Roller
r: 32
|: "D" f2 ef e2 d2 | "D" FAFA (3 BcB A2 | "A" g2 fg f2 e2 | "A7" BABc (3 BcB A2 |
"D" f2 ef e2 d2 | "D" FAFA (3 BcB A2 | "A" g2 fg  f2 e2 | "A7" B2 c2 "D" d4 :|
|: "A" e3 f g2 e2 | "D" f2 g2 a4 | "A" e3 f g2 e2 | "A" BABc (3 BcB A2 |
"A" e3 f g2 e2 | "D" f2 g2 a4 | "A" e3 f g2 e2 | "A7" B2 c2 "D" d4 :|
